assets/Water pistol/Flat/water_pistol_flat.svg

<svg width="32" height="32" viewBox="0 0 32 32" fill="none" xmlns="http://www.w3.org/2000/svg">
<path d="M20.88 24.2599H16.3C15.61 24.2599 14.98 23.8499 14.71 23.2099L13.13 19.4499L14.03 19.0699L15.61 22.8299C15.73 23.1099 15.99 23.2899 16.29 23.2899H20.87V24.2599H20.88Z" fill="#86D72F"/>
<path d="M29.25 12.75H28V16.25H29.25C29.6642 16.25 30 15.9142 30 15.5V13.5C30 13.0858 29.6642 12.75 29.25 12.75Z" fill="#F8312F"/>
<path d="M2 14.5C2 13.9477 2.44772 13.5 3 13.5H6V15.5H3C2.44772 15.5 2 15.0523 2 14.5Z" fill="#F8312F"/>
<path d="M18.44 19.4601H10.25C9.33997 19.4601 8.59997 18.7201 8.58997 17.8101H26.36C26.25 17.8501 26.16 17.9501 26.14 18.0701C26.04 18.6801 25.61 19.1801 25.04 19.3701C24.9 19.4101 24.83 19.5501 24.86 19.6901L26.47 25.4901C26.99 27.3501 25.59 29.1901 23.66 29.1901C22.35 29.1901 21.2 28.3101 20.85 27.0501L18.82 19.7501C18.77 19.5801 18.62 19.4601 18.44 19.4601Z" fill="#F8312F"/>
<path d="M17.45 20.5499C17.45 20.2099 17.18 19.9399 16.84 19.9399C16.5 19.9399 16.23 20.2199 16.23 20.5599V22.2399C16.23 22.5799 16.5 22.8499 16.84 22.8499C17.18 22.8499 17.45 22.5799 17.45 22.2399V21.8164L17.8086 21.418L17.45 20.9766V20.5499Z" fill="#F8312F"/>
<path d="M7.5 11C5.567 11 4 12.567 4 14.5C4 16.433 5.567 18 7.5 18H26.5C27.6046 18 28.5 17.1046 28.5 16V13C28.5 11.8954 27.6046 11 26.5 11H7.5Z" fill="#C3EF3C"/>
<path d="M19.3956 21.82L19.1592 20.97H17.45V21.82H19.3956Z" fill="#C3EF3C"/>
</svg>

<svg xmlns="http://www.w3.org/2000/svg" width="32" height="32" fill="none"><path fill="#86D72F" d="M20.88 24.26H16.3c-.69 0-1.32-.41-1.59-1.05l-1.58-3.76.9-.38 1.58 3.76c.12.28.38.46.68.46h4.58v.97h.01Z"/><path fill="#F8312F" d="M29.25 12.75H28v3.5h1.25a.75.75 0 0 0 .75-.75v-2a.75.75 0 0 0-.75-.75ZM2 14.5a1 1 0 0 1 1-1h3v2H3a1 1 0 0 1-1-1ZM18.44 19.46h-8.19c-.91 0-1.65-.74-1.66-1.65h17.77c-.11.04-.2.14-.22.26-.1.61-.53 1.11-1.1 1.3-.14.04-.21.18-.18.32l1.61 5.8a2.916 2.916 0 1 1-5.62 1.56l-2.03-7.3a.396.396 0 0 0-.38-.29Z"/><path fill="#F8312F" d="M17.45 20.55c0-.34-.27-.61-.61-.61-.34 0-.61.28-.61.62v1.68c0 .34.27.61.61.61.34 0 .61-.27.61-.61v-.424l.359-.398-.359-.441v-.427Z"/><path fill="#C3EF3C" d="M7.5 11a3.5 3.5 0 1 0 0 7h19a2 2 0 0 0 2-2v-3a2 2 0 0 0-2-2h-19ZM19.396 21.82l-.237-.85H17.45v.85h1.946Z"/></svg>
